X:450
T: BRUEDER LASST UNS LUSTIG SEIN
N: E1688B
O: Europa, Mitteleuropa, Deutschland
R: Staende -, Studenten - Lied
M: 3/4
L: 1/16
K: D
 | D3A,A,6D2 | B,2B,2B,8
C3DE4C4 | D4D,4z4
D3A,A,6D2 | B,2B,2B,8
C3DE4C4 | D4D,4z4
C3DE4E4 | F3DE8
C3DE4E4 | F3DE8
D3CB,4G2E2 | D2C2D8

